img/services/equipment/08.svg

<svg width="174" height="55" viewBox="0 0 174 55" fill="none" xmlns="http://www.w3.org/2000/svg">
<path fill-rule="evenodd" clip-rule="evenodd" d="M52.3329 22.8098C52.3329 22.8098 52.27 23.1948 52.6502 23.1311C53.0935 23.0027 52.6502 22.8744 52.3329 22.8106V22.8098ZM54.6162 25.1828C53.7281 25.4395 52.7132 25.8245 51.4448 26.7858C51.5078 26.722 51.5708 26.337 51.6984 26.1449C51.8889 25.8245 52.0786 26.0166 52.4597 25.8245C52.5857 25.6961 52.4597 25.5678 52.4597 25.3757C53.1573 25.119 53.4108 24.734 54.1721 24.4774C55.1878 24.0932 58.5497 23.9648 58.6127 23.9648C58.993 22.6815 56.4554 23.8365 55.9484 23.7082C55.8216 23.6444 54.3627 23.5798 56.0751 23.2594C56.2657 23.3232 56.583 23.3232 56.583 23.3232C57.09 23.1311 57.2168 22.4894 57.9151 22.4894C58.6127 22.4894 59.6276 23.2594 60.0716 23.3232C60.6424 23.4515 60.896 23.1956 61.2132 23.1956C63.3705 22.8744 64.7019 23.3232 65.146 24.8616C65.2097 25.0545 65.02 25.3112 65.2735 25.4395C65.3995 25.5033 65.4632 25.4395 65.527 25.4395C65.8443 25.567 67.0497 26.4016 66.6057 27.0425C66.2246 27.4912 65.7176 27.2354 65.146 27.0425L65.4633 26.9787C66.3514 27.2354 66.4789 26.6575 65.7176 26.4016C65.527 26.3378 65.0192 26.3378 64.7657 26.2087C64.4484 26.0166 64.6389 25.3112 64.1311 25.1828C63.4973 25.0553 63.3068 25.4395 63.243 25.7599C62.5454 25.7599 62.2919 25.3112 61.5943 25.119C59.1835 24.349 55.8846 24.9907 55.124 25.119C55.25 24.9907 55.3776 24.8624 55.124 24.7978C54.8697 24.6065 54.68 24.9262 54.6162 25.1828ZM69.0802 36.021C69.3975 36.2777 68.3819 38.5223 69.27 37.9444C69.27 37.9444 69.7778 36.4698 69.0802 36.021ZM67.6213 27.7487C68.0016 28.262 68.2551 29.2871 68.763 29.4162C68.9535 29.48 68.763 29.1596 68.763 29.1596C68.5724 28.5825 68.0654 28.3258 67.8111 27.7487H67.6213ZM57.9159 25.3765C57.8529 25.3765 56.9002 25.889 57.3451 25.889C60.644 25.9528 60.644 25.1198 57.9159 25.3765ZM65.2105 23.8373C65.2735 23.9648 65.3373 24.1577 65.3373 24.2861C65.7183 25.1836 67.0505 25.4403 67.304 25.8245C67.4308 25.9528 67.304 26.2095 67.367 26.274C67.6213 26.7228 68.5086 27.2362 68.8897 27.5566C68.8897 27.5566 69.8416 28.0054 70.1581 27.6841C70.5392 27.2999 68.763 27.2354 68.763 27.1078C68.763 26.9795 68.8897 26.5945 68.763 26.3378C68.6362 26.0812 68.1284 25.7607 68.0016 25.4403C68.0016 25.3119 68.1284 25.1198 68.0646 25.0553C67.9386 24.9277 67.7481 25.0553 67.6213 25.0553C66.7332 24.9277 66.86 23.9011 66.1624 23.3877C64.8932 22.4264 63.4343 22.106 62.1659 22.4264C62.3564 22.4902 64.7035 22.7469 65.2105 23.8373ZM54.3635 28.9029C54.7437 28.9029 54.9981 28.5179 55.4421 28.4541C56.5837 28.0691 57.4718 28.1975 58.5497 28.7746C58.867 28.9029 58.9938 29.2233 59.1843 29.2233C59.6283 29.2871 60.0724 29.032 60.77 29.2233C61.4046 29.4162 62.2927 30.3138 62.9273 30.4421C63.8154 30.5696 63.0532 29.3517 62.5462 29.2879C62.9273 28.3904 63.8154 28.262 64.2594 30.4421C64.1319 30.3783 64.0689 30.3138 63.8784 30.3138V30.6988C64.0689 32.3655 65.7813 32.3017 65.7813 32.3017C66.7332 32.3655 66.4159 34.4818 66.923 34.9306C66.923 34.9306 66.4789 37.3035 67.0505 39.0994C66.86 39.2907 65.5908 40.8307 66.1624 41.4078C66.5427 41.792 67.304 41.0228 66.86 42.562C66.5427 42.562 66.86 43.7162 66.4789 44.165C65.5278 45.3192 63.7516 44.4854 64.5759 45.3838C64.3224 45.5113 63.054 46.3451 62.4194 46.7301C61.0235 47.3072 58.1056 47.2434 56.7105 46.7938C56.457 46.6663 56.2664 46.2167 56.0759 46.153C55.8854 46.0892 55.6319 46.2805 55.4413 46.2167C55.2516 46.153 52.27 45.3192 51.6354 42.562C51.5724 42.4337 51.7621 42.3691 51.7621 42.2416C51.6992 41.5999 51.1913 41.2795 51.3819 40.5741C51.2551 40.5103 51.1283 40.5741 51.0646 40.4457C51.0016 40.2536 51.1913 40.1253 51.1913 39.997C51.1913 39.9332 50.6843 39.9969 50.4308 39.8041C49.7962 39.4198 50.9378 38.4577 50.7473 37.8806C50.9378 37.7531 51.1913 37.624 51.2551 37.3673C51.4456 36.7902 50.5575 35.7651 49.6056 35.7006C49.9229 35.0589 49.1616 35.3156 50.2402 33.5197C50.5575 32.8788 51.1913 32.5584 51.5724 32.3655C51.6984 32.238 51.6984 31.2113 52.1432 30.6988C52.8408 30.0571 54.1729 30.3138 54.5532 30.25L54.6808 30.0571C54.4902 29.9933 54.4902 29.9296 54.3635 29.865C55.3146 29.7367 55.8854 29.4162 56.7735 29.2879C56.1397 29.095 54.9973 29.2241 54.3635 29.3517V28.9029ZM57.4719 21.6572C57.9789 21.4643 59.1213 21.336 60.0086 21.336C60.6432 21.336 61.214 21.4643 61.214 21.4643C61.214 21.4643 62.673 22.2981 61.3408 22.2981C60.2621 22.2343 56.9002 21.8493 57.4719 21.6564V21.6572ZM49.6694 24.479C49.9229 24.4144 50.1135 24.6065 49.9867 24.6703H50.5575C51.5724 24.2215 51.6362 24.9269 51.4456 25.2482C51.8259 24.8632 51.8259 24.2215 52.207 23.709C53.0313 23.9011 53.2856 23.3877 53.7927 22.939C53.2848 22.939 51.6354 23.5161 51.4456 23.709C51.4456 23.8365 51.5716 24.0932 51.5086 24.1577C51.5086 24.1577 50.7473 23.6444 51.1283 23.324C51.1913 23.2602 51.6991 22.8752 52.0164 22.6831C53.4116 22.0414 55.1248 21.721 56.457 21.2722C57.1546 21.0156 60.0724 20.8872 60.1362 20.8872C60.4527 20.8235 60.5165 21.1439 60.9605 21.0793C61.0873 21.0793 61.9762 20.4385 62.1651 20.3739C63.054 20.2464 63.3075 21.2722 63.5611 21.7848C63.9421 21.721 64.5767 21.5927 64.957 21.721C65.2743 21.8485 65.5278 22.4264 65.5278 22.6185C66.4159 22.6185 66.9867 23.2602 67.6851 23.6444C67.5576 23.9656 67.5575 24.0294 67.4946 24.3498C67.8748 24.3498 68.1284 24.4136 68.6362 24.4136C68.6992 24.6703 69.207 25.3119 68.8267 25.4403C69.207 25.6324 70.2857 26.4024 70.4754 26.7874C70.6659 27.2354 70.8565 27.4283 71.11 27.9408L71.2367 28.1337C71.6178 28.3904 73.2035 30.3775 72.95 30.3138C72.7594 30.25 72.3154 29.8004 71.9343 29.3517C72.8224 30.6988 73.5208 31.7884 74.0286 33.5843C74.7254 36.2777 74.4719 40.4457 74.0916 40.7662C74.2814 41.2795 73.8373 43.6517 73.6476 44.0367C73.013 45.32 72.1886 46.7301 71.3643 47.8843C71.1738 48.2047 69.207 49.4227 68.5094 50.321C67.4938 51.4752 67.6213 52.2452 67.5576 52.309C67.1773 52.5011 67.0505 52.2452 66.6694 52.309C66.2254 52.3727 64.1956 52.1814 62.9902 53.0782C62.7367 53.2711 62.5462 53.5915 62.3564 53.5915C61.9754 53.7191 59.7551 54.1049 58.1057 53.9765C56.457 53.8482 54.9343 53.3348 53.9194 53.0782C53.2848 52.8869 52.7778 52.694 52.0164 52.6294C52.1424 52.2452 52.1424 51.924 51.7629 51.7319C51.3819 51.6043 51.0646 51.924 50.6213 51.7319V51.2831C50.1764 51.6681 50.1135 51.2193 49.4159 51.0264V50.8343C49.6056 50.7706 49.7962 50.8343 49.9867 50.8343C49.3521 50.4493 48.6545 50.0006 47.9562 49.6801C47.3224 49.4235 47.6397 49.1668 47.6397 49.1668C47.6397 49.1668 47.2586 48.4614 47.0051 49.0393C46.9421 49.1668 46.9421 49.3589 46.8783 49.4235C47.1956 49.551 47.4491 50.0006 47.0681 49.8722C46.9421 49.8722 46.7516 49.6156 46.6878 49.4872C46.6248 49.4872 46.561 49.4235 46.4973 49.3597V49.0385C46.3713 48.8464 45.9902 48.5897 45.6729 48.2047C45.2289 47.5638 44.8486 46.6663 44.7848 46.4096C44.4045 45.5759 44.5313 44.8059 44.1502 44.2288C44.1502 44.2288 43.7062 44.1012 43.5164 44.1012C43.6424 43.6517 43.7062 43.5879 44.0235 43.2675C43.8967 42.8825 43.7062 42.6258 43.8329 42.2416C43.8329 42.1778 44.0872 42.0487 44.0235 41.7283C43.9605 35.7006 42.6283 37.2398 42.5016 37.1752C42.6275 36.5981 43.0724 35.7006 42.6275 34.9951H42.9456V34.7385C42.8181 34.7385 42.7551 34.7385 42.6283 34.6747C42.5016 34.6109 42.4378 34.5464 42.311 34.418C42.248 34.418 42.248 34.2897 42.248 34.2251C42.437 34.2889 42.6283 34.2251 42.8818 34.2889C42.6913 33.9047 42.8188 33.1993 42.8188 33.1993C43.0086 32.6222 43.7699 29.2233 45.7367 27.877C46.117 27.492 46.624 27.7495 46.8783 27.1716C47.0043 27.2991 47.1956 27.4283 47.3224 27.5566C47.5759 26.6583 49.0986 26.0819 49.9867 25.6324C50.1127 25.5048 50.4937 25.6962 50.811 25.6324C50.874 25.5686 50.9378 25.5686 50.9378 25.5686C50.5575 25.4403 48.9718 24.9269 49.5426 24.7986C49.6056 24.6073 49.4789 24.5427 49.6686 24.4782L49.6694 24.479ZM49.6694 40.6378C49.2883 40.5103 49.8599 41.0228 50.0497 41.0866C50.5575 41.1504 49.9229 40.6378 49.6694 40.6378ZM49.2254 39.9324C48.4002 39.8048 49.2254 40.3811 49.2254 40.3811C49.7324 40.4457 49.6056 39.9969 49.2254 39.9324ZM45.0383 32.5584C44.8486 32.4301 44.8486 33.648 45.0383 33.648C45.0383 33.7764 45.2289 32.6867 45.0383 32.5584ZM26.1983 28.3896H15.9851V41.3425H4.31445V18.7064C4.31445 15.7571 4.44043 13.64 4.69473 12.422C5.13879 9.85695 6.34419 7.80521 8.05663 6.266C9.45257 5.1118 11.2288 4.27803 13.4483 3.82927C14.971 3.50803 16.9377 3.3797 19.4115 3.3797H26.1983V14.025H19.602C18.4604 14.025 17.6983 14.1525 17.1912 14.5383C16.3669 15.1154 15.9866 16.2051 15.9866 17.8726V18.6418H26.2621V28.3896H26.1983Z" fill="white"/>
<path d="M40.5972 3.3797H29.877V41.3425H40.5972V3.3797Z" fill="white"/>
<path fill-rule="evenodd" clip-rule="evenodd" d="M95.469 14.2171H89.316V41.2787H77.6438V14.2171H71.3633V3.3797H95.4682L95.469 14.2171Z" fill="white"/>
<path d="M40.535 44.6775H4.44141V47.1143H40.535V44.6775ZM161.567 44.6775H77.5797V47.1143H161.567V44.6775Z" fill="white"/>
<path fill-rule="evenodd" clip-rule="evenodd" d="M114.053 31.083H102.762V27.5558C103.46 27.492 106.315 27.6196 106.948 27.5558C106.948 25.3757 105.427 24.2853 103.079 24.0932C100.859 24.0294 99.5271 25.4395 98.9562 27.5558C98.1311 34.4173 105.427 33.0702 109.93 33.1993V40.8299C106.504 40.8299 101.874 41.2141 99.0192 40.1883C96.3549 39.227 94.833 38.0082 93.5008 35.8281C92.2317 33.8402 91.7246 31.5318 91.7246 29.095C91.7246 24.7986 93.8811 20.4377 97.8776 18.5143C101.05 16.8468 104.538 17.1672 107.71 18.5781C112.531 20.8227 114.751 25.7599 114.053 31.083ZM139.934 3.18762V41.2787H149.006V32.1726H149.704C152.495 32.1726 152.431 34.6739 152.431 36.0202V41.2787H161.503V37.8161C161.503 35.3786 161.566 33.0064 160.614 31.2751C159.853 29.928 158.267 28.6455 156.682 28.0683C159.663 26.0804 160.044 23.2594 161.185 20.3094L161.947 18.2576H152.685L151.353 22.6178C150.972 23.8365 150.718 25.3112 149.704 25.3112H149.006V3.18762H139.934ZM116.019 41.1504H125.091V29.3509C125.091 28.1329 125.027 27.1062 125.979 26.5291C126.233 26.4016 126.486 26.2733 126.74 26.2733C126.994 26.2733 127.311 26.337 127.565 26.5291C128.453 27.1062 128.389 28.1329 128.389 29.3509V41.1504H137.461V28.325C137.461 25.6316 137.206 21.5919 132.893 19.0268C131.053 17.9364 128.897 17.5522 126.74 17.5522C124.583 17.5522 122.49 17.9364 120.587 19.0268C116.21 21.5919 116.019 25.6316 116.019 28.325V41.1504Z" fill="white"/>
<path d="M167.022 0.814636C168.545 0.814636 169.876 1.4563 170.892 2.4184C171.906 3.44427 172.477 4.79058 172.477 6.32978C172.477 7.86819 171.843 9.21529 170.892 10.2412C169.876 11.2678 168.545 11.8449 167.022 11.8449C165.499 11.8449 164.167 11.2033 163.152 10.242C162.137 9.21529 161.566 7.86898 161.566 6.32978C161.566 4.79138 162.201 3.44427 163.152 2.4184C164.184 1.39074 165.574 0.814783 167.022 0.814636ZM167.022 1.90507C165.816 1.90507 164.738 2.4184 163.913 3.1884C163.089 4.02138 162.645 5.11181 162.645 6.32978C162.645 7.54855 163.152 8.63819 163.913 9.47196C164.738 10.3057 165.816 10.7553 167.022 10.7553C168.227 10.7553 169.305 10.2412 170.13 9.47196C170.955 8.63819 171.399 7.54855 171.399 6.32978C171.399 5.11181 170.892 4.02138 170.13 3.18761C169.305 2.4184 168.227 1.90507 167.022 1.90507Z" fill="white"/>
<path d="M165.943 6.84312V9.47196H165.119V3.31595H166.832C167.529 3.31595 168.037 3.44348 168.544 3.63638C168.988 3.82928 169.242 4.34182 169.242 5.11102C169.242 6.00935 168.798 6.52189 167.783 6.77856L169.496 9.53653H168.544L166.895 6.90689L165.943 6.84312ZM165.943 4.02138V6.13769H167.022C167.276 6.13769 167.466 6.07392 167.593 6.07392C168.1 5.94479 168.354 5.62435 168.354 5.04725C168.354 4.47015 168.1 4.14972 167.593 4.08515C167.529 4.08515 167.339 4.02138 167.085 4.02138H166.832H165.943Z" fill="white"/>
</svg>

<svg width="174" height="55" fill="none" xmlns="http://www.w3.org/2000/svg"><path fill-rule="evenodd" clip-rule="evenodd" d="M52.333 22.81s-.063.385.317.321c.444-.128 0-.257-.317-.32v-.001zm2.283 2.373c-.888.256-1.903.642-3.171 1.603.063-.064.126-.449.253-.641.19-.32.38-.128.762-.32.126-.129 0-.257 0-.45.697-.256.95-.641 1.712-.898 1.016-.384 4.378-.512 4.44-.512.381-1.284-2.157-.128-2.664-.257-.126-.064-1.585-.128.127-.449.19.064.508.064.508.064.507-.192.634-.834 1.332-.834.698 0 1.713.77 2.157.834.57.128.824-.127 1.141-.127 2.157-.322 3.489.127 3.933 1.666.064.193-.126.45.127.578.127.063.19 0 .254 0 .317.127 1.523.962 1.079 1.602-.381.45-.888.193-1.46 0l.317-.063c.888.256 1.016-.322.255-.577-.191-.064-.699-.064-.952-.193-.318-.192-.127-.898-.635-1.026-.634-.128-.824.256-.888.577-.698 0-.951-.449-1.649-.641-2.41-.77-5.71-.128-6.47 0 .126-.128.254-.257 0-.321-.254-.191-.444.128-.508.385zM69.08 36.02c.317.257-.698 2.501.19 1.923 0 0 .508-1.474-.19-1.923zm-1.459-8.272c.38.513.634 1.538 1.142 1.667.19.064 0-.256 0-.256-.19-.578-.698-.834-.952-1.411h-.19zm-9.705-2.372c-.063 0-1.016.512-.57.512 3.298.064 3.298-.77.57-.512zm7.294-1.54c.064.128.127.32.127.45.381.897 1.713 1.153 1.967 1.538.127.128 0 .384.063.449.254.449 1.142.962 1.523 1.283 0 0 .952.448 1.268.127.381-.384-1.395-.449-1.395-.576 0-.128.127-.514 0-.77-.127-.257-.635-.577-.761-.898 0-.128.126-.32.063-.385-.126-.127-.317 0-.444 0-.888-.127-.761-1.154-1.459-1.667-1.269-.962-2.728-1.282-3.996-.962.19.064 2.538.32 3.044 1.411zm-10.846 5.066c.38 0 .634-.385 1.078-.449 1.142-.385 2.03-.256 3.108.32.317.129.444.45.634.45.444.063.888-.192 1.586 0 .635.192 1.523 1.09 2.157 1.218.888.128.126-1.09-.38-1.154.38-.898 1.268-1.026 1.712 1.154-.127-.064-.19-.128-.38-.128v.385c.19 1.666 1.902 1.603 1.902 1.603.952.063.635 2.18 1.142 2.629 0 0-.444 2.373.127 4.168-.19.192-1.46 1.732-.888 2.309.38.384 1.142-.385.698 1.154-.317 0 0 1.154-.381 1.603-.951 1.154-2.727.32-1.903 1.219-.254.127-1.522.961-2.157 1.346-1.395.577-4.313.513-5.708.064-.254-.128-.445-.577-.635-.641-.19-.064-.444.128-.635.064-.19-.064-3.171-.898-3.806-3.655-.063-.128.127-.193.127-.32-.063-.642-.57-.962-.38-1.668-.127-.064-.254 0-.317-.128-.063-.192.126-.32.126-.449 0-.064-.507 0-.76-.193-.635-.384.507-1.346.316-1.923.19-.128.444-.257.508-.514.19-.577-.698-1.602-1.65-1.666.318-.642-.443-.385.635-2.181.317-.641.951-.962 1.332-1.155.126-.127.126-1.154.571-1.666.698-.642 2.03-.385 2.41-.449l.128-.193c-.19-.064-.19-.127-.317-.192.95-.128 1.521-.449 2.41-.577-.634-.193-1.777-.064-2.41.064v-.45zm3.108-7.246c.507-.193 1.65-.321 2.537-.321.634 0 1.205.128 1.205.128s1.459.834.127.834c-1.079-.064-4.44-.449-3.87-.642v.001zm-7.803 2.822c.254-.065.445.128.318.191h.57c1.015-.449 1.08.257.889.578.38-.385.38-1.027.761-1.539.824.192 1.079-.321 1.586-.77-.508 0-2.158.577-2.347.77 0 .128.126.384.063.449 0 0-.762-.514-.38-.834.062-.064.57-.449.887-.64 1.396-.643 3.109-.963 4.441-1.412.698-.256 3.615-.385 3.68-.385.316-.064.38.257.824.192.126 0 1.015-.64 1.204-.705.889-.128 1.142.898 1.396 1.41.381-.063 1.016-.191 1.396-.063.317.128.57.705.57.898.889 0 1.46.641 2.158 1.025-.127.322-.127.385-.19.706.38 0 .633.064 1.141.064.063.256.571.898.19 1.026.381.192 1.46.962 1.65 1.347.19.448.38.641.634 1.154l.127.193c.38.256 1.967 2.244 1.713 2.18-.19-.064-.635-.514-1.016-.962.888 1.347 1.587 2.436 2.095 4.232.696 2.694.443 6.862.063 7.182.19.514-.255 2.886-.444 3.27a29.178 29.178 0 01-2.284 3.848c-.19.32-2.157 1.539-2.855 2.437-1.015 1.154-.888 1.924-.951 1.988-.38.192-.508-.064-.889 0-.444.064-2.473-.128-3.679.77-.253.192-.444.513-.634.513-.38.127-2.6.513-4.25.385-1.649-.129-3.172-.642-4.187-.899-.634-.191-1.141-.384-1.903-.449.126-.384.126-.705-.253-.897-.381-.128-.698.192-1.142 0v-.449c-.445.385-.508-.064-1.205-.257v-.192c.19-.063.38 0 .57 0-.634-.385-1.331-.833-2.03-1.154-.634-.257-.316-.513-.316-.513s-.381-.706-.635-.128c-.063.128-.063.32-.127.384.318.128.571.578.19.45-.126 0-.316-.257-.38-.386-.063 0-.127-.064-.19-.127v-.322c-.127-.192-.508-.448-.825-.833-.444-.641-.824-1.539-.888-1.795-.38-.834-.254-1.604-.635-2.181 0 0-.444-.128-.634-.128.126-.45.19-.513.508-.834-.127-.385-.318-.641-.191-1.025 0-.064.254-.193.19-.514-.063-6.027-1.395-4.488-1.521-4.553.125-.577.57-1.474.125-2.18h.319v-.256c-.128 0-.19 0-.318-.064-.126-.064-.19-.129-.317-.257-.063 0-.063-.128-.063-.193.189.064.38 0 .634.064-.19-.384-.063-1.09-.063-1.09.19-.577.95-3.976 2.918-5.322.38-.385.887-.127 1.141-.705.126.127.318.256.444.385.254-.899 1.777-1.475 2.665-1.925.126-.127.507.064.824 0 .063-.063.127-.063.127-.063-.38-.129-1.966-.642-1.395-.77.063-.192-.064-.256.126-.32zm0 16.159c-.38-.128.19.385.38.449.508.063-.126-.45-.38-.45zm-.444-.706c-.825-.127 0 .45 0 .45.507.064.38-.385 0-.45zm-4.187-7.374c-.19-.128-.19 1.09 0 1.09 0 .128.19-.961 0-1.09zm-18.84-4.168H15.985v12.953H4.315V18.706c0-2.949.125-5.066.38-6.284.444-2.565 1.65-4.617 3.362-6.156 1.396-1.154 3.172-1.988 5.391-2.437 1.523-.321 3.49-.45 5.963-.45h6.787v10.646h-6.596c-1.142 0-1.904.127-2.41.513-.825.577-1.205 1.667-1.205 3.335v.769h10.275v9.748h-.064z" fill="#fff"/><path d="M40.597 3.38h-10.72v37.962h10.72V3.38z" fill="#fff"/><path fill-rule="evenodd" clip-rule="evenodd" d="M95.469 14.217h-6.153V41.28H77.644V14.217h-6.28V3.38h24.104l.001 10.837z" fill="#fff"/><path d="M40.535 44.678H4.441v2.436h36.094v-2.436zm121.032 0H77.58v2.436h83.987v-2.436z" fill="#fff"/><path fill-rule="evenodd" clip-rule="evenodd" d="M114.053 31.083h-11.291v-3.527c.698-.064 3.553.064 4.186 0 0-2.18-1.521-3.27-3.869-3.463-2.22-.064-3.552 1.346-4.123 3.463-.825 6.861 6.471 5.514 10.974 5.643v7.63c-3.426 0-8.056.385-10.91-.64-2.665-.962-4.187-2.18-5.52-4.36-1.268-1.989-1.775-4.297-1.775-6.734 0-4.296 2.156-8.657 6.153-10.58 3.172-1.668 6.66-1.348 9.832.063 4.821 2.245 7.041 7.182 6.343 12.505zm25.881-27.895v38.09h9.072v-9.105h.698c2.791 0 2.727 2.5 2.727 3.847v5.259h9.072v-3.463c0-2.437.063-4.81-.889-6.54-.761-1.348-2.347-2.63-3.932-3.208 2.981-1.988 3.362-4.809 4.503-7.759l.762-2.051h-9.262l-1.332 4.36c-.381 1.219-.635 2.693-1.649 2.693h-.698V3.188h-9.072zM116.019 41.15h9.072v-11.8c0-1.217-.064-2.244.888-2.82.254-.128.507-.257.761-.257s.571.064.825.256c.888.577.824 1.604.824 2.822v11.8h9.072V28.324c0-2.693-.255-6.733-4.568-9.298-1.84-1.09-3.996-1.475-6.153-1.475-2.157 0-4.25.384-6.153 1.475-4.377 2.565-4.568 6.605-4.568 9.298V41.15z" fill="#fff"/><path d="M167.022.815c1.523 0 2.854.641 3.87 1.603 1.014 1.026 1.585 2.373 1.585 3.912 0 1.538-.634 2.885-1.585 3.911-1.016 1.027-2.347 1.604-3.87 1.604-1.523 0-2.855-.642-3.87-1.603-1.015-1.027-1.586-2.373-1.586-3.912 0-1.539.635-2.886 1.586-3.912a5.485 5.485 0 013.87-1.603zm0 1.09c-1.206 0-2.284.513-3.109 1.283-.824.833-1.268 1.924-1.268 3.142 0 1.219.507 2.308 1.268 3.142.825.834 1.903 1.283 3.109 1.283 1.205 0 2.283-.514 3.108-1.283.825-.834 1.269-1.923 1.269-3.142 0-1.218-.507-2.309-1.269-3.142-.825-.77-1.903-1.283-3.108-1.283z" fill="#fff"/><path d="M165.943 6.843v2.629h-.824V3.316h1.713c.697 0 1.205.127 1.712.32.444.193.698.706.698 1.475 0 .898-.444 1.41-1.459 1.668l1.713 2.758h-.952l-1.649-2.63-.952-.064zm0-2.822v2.117h1.079c.254 0 .444-.064.571-.064.507-.13.761-.45.761-1.027s-.254-.897-.761-.962c-.064 0-.254-.064-.508-.064h-1.142z" fill="#fff"/></svg>
